hero/solid/arrow-left.svg

<svg width="24" height="24" viewBox="0 0 24 24" fill="none" xmlns="http://www.w3.org/2000/svg">
<path fill-rule="evenodd" clip-rule="evenodd" d="M11.0303 3.96967C11.3232 4.26256 11.3232 4.73744 11.0303 5.03033L4.81066 11.25H21C21.4142 11.25 21.75 11.5858 21.75 12C21.75 12.4142 21.4142 12.75 21 12.75H4.81066L11.0303 18.9697C11.3232 19.2626 11.3232 19.7374 11.0303 20.0303C10.7374 20.3232 10.2626 20.3232 9.96967 20.0303L2.46967 12.5303C2.17678 12.2374 2.17678 11.7626 2.46967 11.4697L9.96967 3.96967C10.2626 3.67678 10.7374 3.67678 11.0303 3.96967Z" fill="#0F172A"/>
</svg>

<svg viewBox="0 0 24 24" xmlns="http://www.w3.org/2000/svg"><path fill-rule="evenodd" d="M11.03 3.97v0c.29.29.29.76 0 1.06l-6.22 6.22H21v0c.41 0 .75.33.75.75 0 .41-.34.75-.75.75H4.81l6.22 6.22v0c.3.28.31.75.03 1.06 -.29.3-.76.31-1.06.03 -.02-.02-.03-.03-.04-.04l-7.5-7.5v0c-.3-.3-.3-.77 0-1.06l7.5-7.5v0c.29-.3.76-.3 1.06-.001Z"/></svg>
